X:1
T:Title
%%score { ( 1 4 ) | ( 2 3 ) }
L:1/8
M:4/4
K:Db
V:1 treble nm="Grand Piano"
V:4 treble 
V:2 bass 
V:3 bass 
V:1
 z4 z[Q:1/4=100] [FA][DF][EG] | [FA]2 [FB]2 [Fd]2 [FB]2 | %2
 .[Fc]2 [A,DF]2- [A,DF][A,FA][A,DF][A,EG] | [FA]2 [FB]2 [FA]2 F2 | G4- GGEF | G2 A2 B2 c2 | %6
 BA E2- EGEF | [EG]2 [FA]2 [GB]2 [Gc]2 | [DF]4- [DF][FA][DF][EG] | [FA]2 [FB]2 [Fd]2 [FB]2 | %10
 .[Fc]2 [A,DF]2- [A,DF][A,FA][A,DF][A,EG] | [A,FA]2 [FB]2 [FA]2 [FB]2 | [Gc]4- [Gc]c_c=c | %13
 [=Ge]2 [Fd]2 [Ec]2 [EB]2 | ed A2- AAB_c | c2 [Fd]2 [Ec]2 [DB]2 |[M:5/8] [A,CA]-[A,CA]- [A,CA]3 | %17
[M:3/8] ABc |[M:4/4] [Fe]2 [Fd]2- [Fd]F_F=F | [FA]2 [EG]2- [EG]GFG | e2 c2- ccBc | %21
 [FB]2 [FA]2- [FA]ABc | [Fe]2 [Fd]2- [Fd]FGA | [Ac]_c B2- BB[=G=c][Gd] | %24
[M:19/16] f-<fd-<d[Ge]/-[Ge]/-[Ge]/-[Ge]/-[Ge]/-[Ge]-<[Ge][Fd] |[M:5/8] [Fd]-[Fd]- [Fd]3 |] %26
V:2
 z4 z [D,A,][D,A,][D,A,] | [D,D]2 [D,D]2 [D,D]2 [D,D]2 | [D,D]2[K:treble][K:bass] z2 z4 | %3
 [D,D]2 [D,D]2 [D,D]2 [=D,A,_C]2 | [E,A,C]4- [E,A,C][K:treble][A,E][A,C][A,D] | %5
 [A,E]2 [A,F]2 [A,G]2 [A,G]2 | [A,CG]2[K:bass] [A,C]2- [A,C][A,E][A,C][A,D] | %7
 [A,,A,]2 [A,,A,]2 [A,,A,]2 [A,,A,]2 | [D,A,]4- [D,A,][D,A,][D,A,][D,A,] | %9
 [D,D]2 [D,D]2 [D,D]2 [D,D]2 | [D,D]2[K:treble][K:bass] z2 z4 | D,2 [D,A,]2 [D,A,]2 [=D,A,]2 | %12
 [E,A,]4- [E,A,][A,E][A,=D][A,E] | [E,B,]2 [E,=G,]2 [E,G,]2 [D,G,]2 | %14
 [C,A,]2 [F,A,C]2- [F,A,C][F,A,C][_F,A,=D][F,A,D] | [A,E]2 [B,,B,]2 [E,=G,]2 [E,G,]2 | %16
[M:5/8] A,,-A,,- A,,3 |[M:3/8] A,[K:treble][A,=G][A,_G] | %18
[M:4/4][K:bass] [D,A,]2 [D,A,]2- [D,A,][D,A,D][D,=G,D][D,A,D] | %19
 [E,A,]2 [A,,A,]2- [A,,A,][K:treble][A,CE][A,C=D][A,CE] | [A,CG]2 [A,E]2- [A,E][A,G][A,G][A,G] | %21
 [D,D]2 [D,D]2- [D,D]A,[K:treble][A,=G][A,_G] | [D,A,]2 [D,A,]2- [D,A,][D,A,D][E,A,C][F,D] | %23
 z[K:treble] =G [G,D_G]2- [G,DG][K:bass][G,DG][E,C][E,B,] | %24
[M:19/16][K:treble] [A,DA]-<[A,DA][A,F]-<[A,F][K:bass][A,,A,]/-[A,,A,]/-[A,,A,]/-[A,,A,]/-[A,,A,]/-[A,,A,]-<[A,,A,][D,A,] | %25
[M:5/8] [D,A,]-[D,A,]- [D,A,]3 |] %26
V:3
 x8 | x8 | z[K:treble] B[K:bass] D,2- D,D,D,D, | x8 | x5[K:treble] x3 | x8 | x2[K:bass] x6 | x8 | %8
 x8 | x8 | z[K:treble] B[K:bass] D,2- D,D,D,D, | x8 | x8 | x8 | x8 | x8 |[M:5/8] x5 | %17
[M:3/8] x[K:treble] x2 |[M:4/4][K:bass] x8 | x5[K:treble] x3 | x8 | x6[K:treble] x2 | x8 | %23
 [G,D]2[K:treble] z2 z4[K:bass] |[M:19/16][K:treble] x4[K:bass] x11/2 |[M:5/8] x5 |] %26
V:4
 x8 | x8 | x8 | x8 | x8 | x8 | x8 | x8 | x8 | x8 | x8 | x8 | x8 | x8 | E2 z2 z4 | x8 |[M:5/8] x5 | %17
[M:3/8] x3 |[M:4/4] x8 | x8 | x8 | x8 | x8 | x8 |[M:19/16] x19/2 |[M:5/8] x5 |] %26

